X:1
T:Carol of Redemption
T:Carol of Redemption
T:Howard E. Smith
T:Flora Kirkland, 1903
T:Public Domain Courtesy of the Cyber Hymnal™
T:Public Domain Courtesy of the Cyber Hymnal™
C:Howard E. Smith
Z:Public Domain
Z:Courtesy of the Cyber Hymnal™
%%score ( 1 2 ) ( 3 4 )
L:1/8
Q:1/4=110
M:4/4
K:Db
V:1 treble 
V:2 treble 
V:3 bass 
V:4 bass 
V:1
 [FA][FA][FA][GB] [FA]2 [DF]2 | [FA]2 [EG]4 z2 | [CE][DF][EG][FA] [Ac]2 [GB]2 | [FA]6 z2 | %4
w: 1.~Sung by an- gels o’er a|hill- side,|Send- ing shep- herds to a|stall,|
w: 2.~Hark! We al- most hear them|sing- ing!|Look! The glo- ry shin- eth|bright!|
w: 3.~Might- y car- ol of re-|demp- tion!|Might- y King in low- ly|guise!|
 [Fd][Fd][Fd][Ge] [Fd]2 [FA]2 | [Ac]2 [GB]4 z2 | [FA][GB][FA][EG] [DF]2 [CE]2 | D6 z2 || %8
w: Rang the car- ol of re-|demp- tion,|“Peace on earth”— good will to|all.|
w: See the lambs in peace- ful|slum- ber|On that bless- èd, won- drous|night.|
w: Quick- en now our com- pre-|hen- sion,|Help us see with faith’s clear|eyes.|
"^Refrain" [Gce][Gce][Gce][Gcf] [Gce]2 [GB]2 | [GBd]2 [GAc]4 z2 | %10
w: ||
w: “Peace on earth,” O might- y|chor- us!|
w: ||
 [FAd][FAd][FAd][FAe] [FAd]2 [DGB]2 | [DFA]6 z2 | [A,CG][A,CG][A,CG][A,CA] [A,CG]2 [A,CA]2 | %13
w: |||
w: Float- ing down the stream of|time,|“Peace on earth,” it e- choes|
w: |||
 [CGc]2 [CGc]4 z2 | [CGB][CGB][CGB][CGd] [CGc]2 [CGB]2 | [DFA]6 z2 | %16
w: |||
w: o’er us,|Ring- ing still in tones sub-|lime!|
w: |||
 [Gce][Gce][Gce][Gcf] [Gce]2 [GB]2 | [GBd]2 [GAc]4 z2 | [FAd][FAd][FAd][FAe] [FAd]2 [DGB]2 | %19
w: |||
w: “Peace on earth,” O might- y|chor- us!|Float- ing down the stream of|
w: |||
 [DFA]6 z2 | [DGB][DGB][DGB][DBd] [DAc]2 [DGB]2 | [DFA]2 [DFAd]4 z2 | %22
w: |||
w: time,|“Peace on earth,” it e- choes|o’er us,|
w: |||
 [DFA][DFA][DFA][DG] [DF]2 [CE]2 | D8 |] %24
w: ||
w: Ring- ing still in tones sub-|lime!|
w: ||
V:2
 x8 | x8 | x8 | x8 | x8 | x8 | x8 | D6 x2 || x8 | x8 | x8 | x8 | x8 | x8 | x8 | x8 | x8 | x8 | x8 | %19
 x8 | x8 | x8 | x8 | (A,2 B,2 A,4) |] %24
V:3
 [D,D][D,D][D,D][D,D] [D,D]2 [D,A,]2 | [A,,A,]2 [A,,A,]4 z2 | %2
 [A,,A,][A,,A,][A,,A,][A,,A,] [A,,A,]2 [A,,C]2 | [D,D]6 z2 | %4
 [D,A,][D,A,][D,A,][D,A,] [D,A,]2 [D,D]2 | [G,D]2 [G,D]4 z2 | [A,D][A,D][A,D]A, A,2 [A,,G,]2 | %7
 [D,F,]6 z2 || [E,,E,]2 [A,,,A,,]2 [E,,E,]2 [A,,,A,,]2 | [E,,E,]2 ([A,,,A,,]2 [C,,C,]2 [E,,E,]2) | %10
 [D,,D,]2 [A,,,A,,]2 [D,,D,]2 [G,,G,]2 | ([F,,F,]2 [A,,,A,,]2 [D,,D,]2 [F,,F,]2) | %12
 [E,,E,]2 [A,,,A,,]2 [E,,E,]2 [A,,,A,,]2 | [E,,E,]2 ([A,,,A,,]2 [E,,E,]2 [A,,,A,,]2) | %14
 [E,,E,]2 [A,,,A,,]2 [E,,E,]2 [A,,,A,,]2 | ([D,,D,]2 [A,,,A,,]2 [D,,D,]2 [F,,F,]2) | %16
 [E,,C,E,]2 [A,,,A,,]2 [E,,E,]2 [A,,,A,,]2 | [E,,E,]2 ([A,,,A,,]2 [C,,C,]2 [E,,E,]2) | %18
 [D,,D,]2 [A,,,A,,]2 [D,,D,]2 [G,,G,]2 | ([F,,F,]2 [A,,,A,,]2 [D,,D,]2 [F,,F,]2) | %20
 [G,,G,]2 [D,,D,]2 [G,,G,]2 [D,,D,]2 | [F,,F,]2 ([D,,D,]2 F,,2 [G,,G,]2) | %22
 [A,,A,][A,,A,][A,,A,][A,,B,] [A,,A,]2 [A,,G,]2 | (F,2 G,2 F,4) |] %24
V:4
 x8 | x8 | x8 | x8 | x8 | x8 | x3 A, A,2 x2 | x8 || x8 | x8 | x8 | x8 | x8 | x8 | x8 | x8 | x8 | %17
 x8 | x8 | x8 | x8 | x8 | x8 | D,8 |] %24

